dist/uploads/advantages/3.svg

<svg width="107" height="107" viewBox="0 0 107 107" fill="none" xmlns="http://www.w3.org/2000/svg">
<path d="M53.3502 48.0773C50.1362 48.0773 47.5218 50.6921 47.5218 53.9056C47.5218 57.1194 50.1366 59.734 53.3502 59.734C56.5641 59.734 59.1787 57.1192 59.1787 53.9056C59.1787 50.6921 56.5643 48.0773 53.3502 48.0773ZM53.3502 56.5593C51.8868 56.5593 50.6965 55.3687 50.6965 53.9056C50.6965 52.4425 51.8871 51.252 53.3502 51.252C54.8133 51.252 56.004 52.4425 56.004 53.9056C56.004 55.3687 54.8135 56.5593 53.3502 56.5593Z" fill="white"/>
<path d="M53.3502 40.2504C45.8205 40.2504 39.6947 46.3761 39.6947 53.9058C39.6947 61.4356 45.8205 67.5613 53.3502 67.5613C60.8799 67.5613 67.0056 61.4356 67.0056 53.9058C67.0056 46.3761 60.8799 40.2504 53.3502 40.2504ZM53.3502 64.3864C47.5709 64.3864 42.8694 59.6849 42.8694 53.9056C42.8694 48.1264 47.5711 43.4249 53.3502 43.4249C59.1292 43.4249 63.8309 48.1266 63.8309 53.9056C63.8309 59.6847 59.1292 64.3864 53.3502 64.3864Z" fill="white"/>
<path d="M53.3502 32.5501C41.5747 32.5501 31.9945 42.1304 31.9945 53.9058C31.9945 65.6813 41.5747 75.2613 53.3502 75.2613C65.1256 75.2613 74.7059 65.6811 74.7059 53.9058C74.7059 42.1302 65.1258 32.5501 53.3502 32.5501ZM53.3502 72.0866C43.3254 72.0866 35.1694 63.9308 35.1694 53.906C35.1694 43.8811 43.3254 35.7252 53.3502 35.7252C63.3749 35.7252 71.531 43.8813 71.531 53.906C71.531 63.9308 63.3751 72.0866 53.3502 72.0866Z" fill="white"/>
<path d="M53.3502 24.9101C37.362 24.9101 24.3546 37.9175 24.3546 53.9057C24.3546 69.8938 37.362 82.9012 53.3502 82.9012C69.3385 82.9012 82.3457 69.8938 82.3457 53.9057C82.3457 37.9175 69.3385 24.9101 53.3502 24.9101ZM53.3502 79.7265C39.1125 79.7265 27.5293 68.1433 27.5293 53.9057C27.5293 39.668 39.1125 28.0848 53.3502 28.0848C67.5881 28.0848 79.171 39.668 79.171 53.9057C79.171 68.1433 67.5878 79.7265 53.3502 79.7265Z" fill="white"/>
<path d="M53.3502 17.1467C33.0812 17.1467 16.5911 33.6366 16.5911 53.906C16.5911 74.1754 33.081 90.6651 53.3502 90.6651C73.6193 90.6651 90.1095 74.1752 90.1095 53.9058C90.1095 33.6364 73.6193 17.1467 53.3502 17.1467ZM53.3502 87.4902C34.8316 87.4902 19.766 72.4243 19.766 53.9058C19.766 35.3873 34.8316 20.3216 53.3502 20.3216C71.8687 20.3216 86.9346 35.3875 86.9346 53.906C86.9346 72.4246 71.8689 87.4902 53.3502 87.4902Z" fill="white"/>
<path d="M53.3502 10.3756C29.3477 10.3756 9.82018 29.9031 9.82018 53.9058C9.82018 77.9081 29.3477 97.4358 53.3502 97.4358C77.3526 97.4358 96.8801 77.9083 96.8801 53.9058C96.8803 29.9031 77.3526 10.3756 53.3502 10.3756ZM53.3502 94.2609C31.0981 94.2609 12.9951 76.1577 12.9951 53.9058C12.9951 31.654 31.0983 13.5503 53.3502 13.5503C75.602 13.5503 93.7053 31.6538 93.7053 53.9056C93.7053 76.1574 75.6022 94.2609 53.3502 94.2609Z" fill="white"/>
<path d="M105.765 56.1804C105.388 55.3802 104.92 54.3844 104.92 53.9061C104.92 50.8752 104.655 47.8369 104.131 44.876C103.998 44.1183 104.147 43.4698 104.319 42.7189C104.556 41.6872 104.85 40.4032 104.337 38.826C104.105 38.1112 103.871 37.3478 103.624 36.5392C102.732 33.6266 101.722 30.3259 100.297 27.8532C99.5832 26.6137 98.2174 25.7007 96.8964 24.8177C96.0099 24.225 95.0931 23.6123 94.7098 23.0986C94.3132 22.5672 93.8589 21.2359 93.4576 20.0615C92.8254 18.2099 92.2284 16.4609 91.2606 15.44C89.6691 13.7616 87.9496 12.1758 86.15 10.7265C84.5219 9.41537 82.729 9.32572 81.1472 9.2463C79.9867 9.18821 78.9846 9.13784 78.1014 8.65383C75.5585 7.25991 72.8806 6.07518 70.1429 5.13266C69.3619 4.8639 68.3208 4.12556 67.3139 3.41167C65.7985 2.33728 64.2314 1.22611 62.5996 0.914725C59.418 0.307834 56.148 0 52.8806 0C50.2647 0 48.0112 1.05433 45.8322 2.07396C44.4547 2.71847 43.1536 3.32724 41.8527 3.62316C40.9003 3.83988 39.6813 3.77342 38.3911 3.7032C36.5568 3.60331 34.6605 3.49944 32.9871 4.17613C30.6026 5.14018 28.2695 6.29524 26.052 7.60933C24.6125 8.4624 23.7281 9.90105 22.8727 11.2925C22.2811 12.2546 21.7225 13.1633 21.094 13.6678C20.2054 14.3811 19.0011 14.8747 17.7258 15.3971C15.878 16.1545 13.9668 16.9376 12.589 18.5423C10.7719 20.6587 9.1159 22.9375 7.66639 25.3151C6.46661 27.2837 6.06139 29.8413 5.66975 32.3146C5.41709 33.9094 5.17843 35.4155 4.75314 36.6107C3.93852 38.8993 3.28168 41.2686 2.8006 43.6518C2.43572 45.4602 2.1655 47.3111 1.99727 49.1533C1.85369 50.7228 1.78118 52.3217 1.78118 53.9058C1.78118 55.0647 1.39665 56.4511 0.989126 57.9192C0.414837 59.9892 -0.178888 62.13 0.188298 64.1292C0.536048 66.0236 0.995814 67.918 1.55485 69.7596C2.10949 71.5866 2.77385 73.402 3.52996 75.1552C4.17697 76.6561 5.5778 77.6174 6.93264 78.5472C7.81435 79.1524 8.72594 79.7779 9.07515 80.361C9.88392 81.7116 10.7658 83.042 11.6969 84.3148C12.7491 85.754 13.8895 87.1548 15.0862 88.4788C15.5754 89.02 16.1371 90.0501 16.6803 91.0463C17.4847 92.522 18.3166 94.0476 19.3829 94.9713C21.1753 96.5244 23.0913 97.9662 25.0773 99.2565C26.4023 100.118 27.7928 100.112 28.909 100.107C29.7065 100.105 30.3949 100.101 30.9646 100.376C31.8737 100.814 32.8994 101.726 33.985 102.691C35.5652 104.095 37.1992 105.547 39.069 106.084C40.776 106.575 42.28 106.666 43.7344 106.753C44.5149 106.8 45.3224 106.849 46.1818 106.959C46.4018 106.987 46.6219 107 46.842 107C48.1109 107 49.3774 106.57 50.6081 106.152C51.5891 105.819 52.6035 105.475 53.3502 105.475C54.6037 105.475 55.9738 105.818 57.4247 106.181C59.5087 106.703 61.6638 107.243 63.7931 106.821C66.0123 106.383 68.1774 105.513 70.2716 104.671C70.9278 104.408 71.5475 104.159 72.1585 103.927C73.5949 103.383 74.7006 102.21 75.6764 101.175C76.3775 100.431 77.0396 99.7292 77.6776 99.3873C80.0751 98.1025 82.3904 96.6137 84.5595 94.9625C85.1315 94.5268 86.1783 94.2202 87.1906 93.9238C88.7141 93.4779 90.2894 93.0162 91.4025 91.914C93.4258 89.9097 95.2956 87.7241 96.9594 85.418C97.8327 84.2075 97.9527 82.6448 98.0582 81.2663C98.1292 80.3384 98.203 79.3792 98.4914 78.858C99.7518 76.5827 100.847 74.1936 101.746 71.7569C102 71.0678 102.688 70.391 103.416 69.6737C104.472 68.6347 105.669 67.4568 106.034 65.7496C106.423 63.9323 106.717 62.0707 106.907 60.2163C107.042 58.8945 106.393 57.5146 105.765 56.1804ZM103.749 59.893C103.57 61.6333 103.295 63.3802 102.93 65.085C102.763 65.8618 101.999 66.6144 101.189 67.411C100.288 68.2978 99.2672 69.303 98.7675 70.6576C97.924 72.9437 96.8969 75.1851 95.7142 77.3198C95.0902 78.4465 94.9897 79.7566 94.8925 81.0237C94.8152 82.0318 94.7351 83.0742 94.3845 83.5603C92.8225 85.7254 91.0672 87.777 89.1678 89.6587C88.6257 90.1956 87.4424 90.5423 86.2978 90.8773C85.0086 91.2549 83.6755 91.6453 82.636 92.4365C80.6001 93.9861 78.4272 95.3836 76.1775 96.5892C75.0841 97.1752 74.2108 98.1017 73.3661 98.9974C72.5893 99.8214 71.7859 100.673 71.0332 100.958C70.3926 101.201 69.7293 101.468 69.0877 101.726C67.1298 102.512 65.1049 103.326 63.1779 103.706C61.7451 103.988 60.0209 103.558 58.1955 103.101C56.6218 102.707 54.9949 102.3 53.3502 102.3C52.0793 102.3 50.8127 102.73 49.5876 103.146C48.4854 103.52 47.346 103.908 46.5849 103.81C45.6196 103.686 44.7582 103.634 43.9252 103.584C42.5254 103.5 41.3162 103.427 39.9455 103.033C38.7689 102.695 37.409 101.486 36.0939 100.318C34.8933 99.2506 33.6517 98.1472 32.3441 97.5163C31.2185 96.9731 30.0929 96.9313 29.1527 96.9313C29.0653 96.9313 28.9797 96.9318 28.8956 96.9322C27.9285 96.9339 27.3113 96.9219 26.8068 96.5943C24.9427 95.383 23.1442 94.0296 21.4617 92.5717C20.8295 92.0238 20.106 90.6971 19.4677 89.5262C18.8069 88.3143 18.1829 87.1695 17.4412 86.3492C16.3177 85.1064 15.2473 83.7914 14.2594 82.4404C13.3857 81.2454 12.5577 79.9971 11.7991 78.7296C11.0937 77.5518 9.89165 76.7267 8.72907 75.929C7.7458 75.2542 6.72909 74.5566 6.44508 73.8977C5.736 72.253 5.11281 70.5502 4.59264 68.8365C4.06809 67.1093 3.63696 65.3323 3.31073 63.5553C3.07563 62.2742 3.57029 60.4914 4.04824 58.7672C4.49442 57.1591 4.95586 55.4962 4.95586 53.9052C4.95586 52.417 5.0242 50.9155 5.15878 49.4417C5.31698 47.7128 5.57048 45.9759 5.9128 44.2792C6.36379 42.0435 6.97987 39.8216 7.74392 37.6749C8.26805 36.2026 8.54099 34.4785 8.80514 32.8114C9.14871 30.6425 9.50378 28.3999 10.3771 26.9673C11.7374 24.7356 13.2918 22.5969 14.9976 20.6105C15.8776 19.5854 17.3599 18.9781 18.9294 18.3348C20.3576 17.7495 21.8341 17.1442 23.0809 16.1434C24.1385 15.2947 24.8698 14.1052 25.577 12.9552C26.2303 11.8925 26.9059 10.7936 27.6706 10.3403C29.751 9.10754 31.9401 8.02354 34.1769 7.11926C35.1938 6.70819 36.7313 6.79157 38.2178 6.87308C39.6696 6.95228 41.1714 7.03462 42.5574 6.71864C44.1902 6.34686 45.7089 5.63652 47.1774 4.94938C49.1287 4.03674 50.9711 3.17468 52.881 3.17468C55.9493 3.17468 59.0191 3.4635 62.0055 4.03361C62.9593 4.21542 64.2976 5.16442 65.4784 6.00182C66.6681 6.84528 67.8984 7.71758 69.1103 8.13493C71.6785 9.01893 74.1903 10.1305 76.5763 11.4381C78.0983 12.2722 79.6339 12.3493 80.989 12.4172C82.4429 12.49 83.3739 12.5669 84.1595 13.1995C85.8491 14.5599 87.4633 16.0487 88.9571 17.6243C89.4484 18.1421 90.0294 19.8443 90.4537 21.0872C90.9768 22.6186 91.4704 24.0652 92.1653 24.9968C92.875 25.9481 94.0225 26.7153 95.1322 27.457C96.1025 28.1055 97.2024 28.8407 97.5466 29.4377C98.7917 31.5986 99.7462 34.7167 100.588 37.4678C100.84 38.2899 101.077 39.0663 101.318 39.8073C101.56 40.5488 101.419 41.1611 101.225 42.0082C101.017 42.9114 100.759 44.0355 101.005 45.4276C101.496 48.2068 101.745 51.0591 101.745 53.9054C101.745 55.0935 102.328 56.333 102.893 57.5319C103.252 58.2954 103.794 59.4485 103.749 59.893Z" fill="white"/>
</svg>

<svg width="107" height="107" fill="none" xmlns="http://www.w3.org/2000/svg"><path d="M53.35 48.077a5.835 5.835 0 0 0-5.828 5.829 5.835 5.835 0 0 0 5.828 5.828 5.835 5.835 0 0 0 5.829-5.828 5.835 5.835 0 0 0-5.829-5.829zm0 8.482a2.657 2.657 0 0 1-2.654-2.653 2.657 2.657 0 0 1 2.654-2.654 2.657 2.657 0 0 1 2.654 2.654 2.657 2.657 0 0 1-2.654 2.653z" fill="#fff"/><path d="M53.35 40.25c-7.53 0-13.655 6.126-13.655 13.656S45.82 67.56 53.35 67.56c7.53 0 13.656-6.125 13.656-13.655 0-7.53-6.126-13.656-13.656-13.656zm0 24.136c-5.78 0-10.48-4.701-10.48-10.48 0-5.78 4.701-10.481 10.48-10.481 5.78 0 10.48 4.702 10.48 10.48 0 5.78-4.7 10.481-10.48 10.481z" fill="#fff"/><path d="M53.35 32.55c-11.775 0-21.356 9.58-21.356 21.356 0 11.775 9.58 21.355 21.356 21.355 11.776 0 21.356-9.58 21.356-21.355 0-11.776-9.58-21.356-21.356-21.356zm0 39.537c-10.025 0-18.18-8.156-18.18-18.181s8.155-18.18 18.18-18.18 18.181 8.155 18.181 18.18-8.156 18.18-18.18 18.18z" fill="#fff"/><path d="M53.35 24.91c-15.988 0-28.995 13.007-28.995 28.996 0 15.988 13.007 28.995 28.995 28.995 15.988 0 28.996-13.007 28.996-28.995 0-15.989-13.008-28.996-28.996-28.996zm0 54.817c-14.238 0-25.82-11.584-25.82-25.821 0-14.238 11.582-25.821 25.82-25.821s25.821 11.583 25.821 25.82c0 14.238-11.583 25.822-25.82 25.822z" fill="#fff"/><path d="M53.35 17.147c-20.269 0-36.759 16.49-36.759 36.759 0 20.27 16.49 36.76 36.76 36.76 20.268 0 36.758-16.49 36.758-36.76s-16.49-36.76-36.759-36.76zm0 70.343c-18.518 0-33.584-15.066-33.584-33.584 0-18.519 15.066-33.584 33.584-33.584 18.519 0 33.585 15.066 33.585 33.584 0 18.519-15.066 33.584-33.585 33.584z" fill="#fff"/><path d="M53.35 10.376c-24.002 0-43.53 19.527-43.53 43.53 0 24.002 19.528 43.53 43.53 43.53 24.003 0 43.53-19.528 43.53-43.53 0-24.003-19.527-43.53-43.53-43.53zm0 83.885c-22.252 0-40.355-18.103-40.355-40.355 0-22.252 18.103-40.356 40.355-40.356 22.252 0 40.355 18.104 40.355 40.356 0 22.251-18.103 40.355-40.355 40.355z" fill="#fff"/><path d="M105.765 56.18c-.377-.8-.845-1.796-.845-2.274 0-3.03-.265-6.07-.789-9.03-.133-.758.016-1.406.188-2.157.237-1.032.531-2.316.018-3.893-.232-.715-.466-1.478-.713-2.287-.892-2.912-1.902-6.213-3.327-8.686-.714-1.24-2.08-2.152-3.4-3.035-.887-.593-1.804-1.206-2.187-1.72-.397-.53-.851-1.862-1.252-3.037-.633-1.851-1.23-3.6-2.197-4.621a52.116 52.116 0 0 0-5.111-4.713c-1.628-1.312-3.421-1.401-5.003-1.48-1.16-.059-2.162-.11-3.046-.593a51.444 51.444 0 0 0-7.958-3.521c-.781-.27-1.822-1.007-2.83-1.721C65.8 2.337 64.232 1.226 62.6.915A51.996 51.996 0 0 0 52.88 0c-2.615 0-4.869 1.054-7.048 2.074-1.377.644-2.678 1.253-3.98 1.55-.952.216-2.17.15-3.46.08-1.835-.1-3.732-.205-5.405.472a51.545 51.545 0 0 0-6.935 3.433c-1.44.853-2.324 2.292-3.18 3.684-.59.962-1.15 1.87-1.778 2.375-.889.713-2.093 1.207-3.368 1.73-1.848.756-3.76 1.54-5.137 3.144a51.907 51.907 0 0 0-4.923 6.773c-1.2 1.969-1.605 4.526-1.996 7-.253 1.594-.492 3.1-.917 4.296a51.398 51.398 0 0 0-2.972 17.295c0 1.159-.384 2.545-.792 4.013-.574 2.07-1.168 4.211-.8 6.21A51.329 51.329 0 0 0 3.53 75.155c.646 1.501 2.047 2.462 3.402 3.392.881.605 1.793 1.23 2.142 1.814a51.784 51.784 0 0 0 6.011 8.118c.49.541 1.051 1.571 1.594 2.567.805 1.476 1.637 3.002 2.703 3.925a51.93 51.93 0 0 0 5.694 4.285c1.325.862 2.716.856 3.832.851.797-.002 1.486-.006 2.056.269.909.438 1.934 1.35 3.02 2.315 1.58 1.404 3.214 2.856 5.084 3.393 1.707.491 3.211.582 4.665.669.78.047 1.588.096 2.448.206.22.028.44.041.66.041 1.269 0 2.535-.43 3.766-.848.981-.333 1.995-.677 2.742-.677 1.254 0 2.624.343 4.075.706 2.084.522 4.239 1.062 6.368.64 2.22-.438 4.384-1.308 6.479-2.15.656-.263 1.275-.512 1.886-.744 1.437-.544 2.543-1.717 3.518-2.752.701-.744 1.364-1.446 2.002-1.788a51.766 51.766 0 0 0 6.882-4.424c.572-.436 1.618-.743 2.63-1.04 1.524-.445 3.1-.907 4.213-2.009a51.986 51.986 0 0 0 5.556-6.496c.874-1.21.994-2.773 1.1-4.152.07-.928.144-1.887.432-2.408a51.464 51.464 0 0 0 3.255-7.101c.254-.69.942-1.366 1.67-2.083 1.056-1.04 2.253-2.217 2.618-3.924a51.73 51.73 0 0 0 .873-5.534c.135-1.322-.514-2.701-1.142-4.036zm-2.016 3.713a48.695 48.695 0 0 1-.819 5.192c-.167.777-.931 1.53-1.741 2.326-.901.887-1.922 1.892-2.421 3.247a48.268 48.268 0 0 1-3.054 6.662c-.624 1.127-.724 2.437-.822 3.704-.077 1.008-.157 2.05-.507 2.536a48.806 48.806 0 0 1-5.217 6.099c-.542.537-1.726.883-2.87 1.218-1.29.378-2.623.768-3.662 1.56a48.603 48.603 0 0 1-6.459 4.152c-1.093.586-1.966 1.513-2.81 2.408-.778.824-1.581 1.676-2.334 1.961-.64.243-1.304.51-1.945.768-1.958.786-3.983 1.6-5.91 1.98-1.433.282-3.157-.148-4.982-.605-1.574-.394-3.201-.801-4.846-.801-1.27 0-2.537.43-3.762.846-1.103.374-2.242.762-3.003.664a37.935 37.935 0 0 0-2.66-.226c-1.4-.084-2.609-.157-3.98-.551-1.176-.338-2.536-1.547-3.851-2.715-1.2-1.067-2.442-2.17-3.75-2.802-1.126-.543-2.251-.585-3.191-.585l-.257.001c-.968.002-1.585-.01-2.09-.338a48.769 48.769 0 0 1-5.344-4.022c-.633-.548-1.356-1.875-1.994-3.046-.661-1.212-1.285-2.356-2.027-3.177a48.845 48.845 0 0 1-5.642-7.62c-.705-1.177-1.907-2.002-3.07-2.8-.983-.675-2-1.372-2.284-2.031a48.181 48.181 0 0 1-3.134-10.343c-.235-1.28.26-3.064.737-4.788.446-1.608.908-3.27.908-4.862a48.597 48.597 0 0 1 .957-9.626 48.167 48.167 0 0 1 1.83-6.604c.525-1.472.798-3.197 1.062-4.864.344-2.169.699-4.411 1.572-5.844a48.666 48.666 0 0 1 4.62-6.357c.88-1.025 2.363-1.632 3.932-2.275 1.429-.585 2.905-1.19 4.152-2.192 1.058-.848 1.789-2.038 2.496-3.188.653-1.063 1.329-2.161 2.094-2.615a48.365 48.365 0 0 1 6.506-3.22c1.017-.412 2.554-.328 4.04-.247 1.453.08 2.954.162 4.34-.154 1.633-.372 3.152-1.082 4.62-1.77 1.952-.912 3.794-1.774 5.704-1.774 3.068 0 6.138.288 9.124.859.954.181 2.293 1.13 3.473 1.968 1.19.843 2.42 1.716 3.632 2.133a48.27 48.27 0 0 1 7.466 3.303c1.522.834 3.058.911 4.413.98 1.454.072 2.385.149 3.17.782a48.857 48.857 0 0 1 4.798 4.424c.491.518 1.072 2.22 1.497 3.463.523 1.532 1.016 2.978 1.711 3.91.71.951 1.857 1.718 2.967 2.46.97.648 2.07 1.384 2.415 1.98 1.245 2.162 2.2 5.28 3.041 8.03.252.823.489 1.6.73 2.34.242.742.101 1.354-.093 2.201-.208.903-.466 2.027-.22 3.42.491 2.779.74 5.631.74 8.477 0 1.188.583 2.428 1.148 3.627.359.763.901 1.917.856 2.361z" fill="#fff"/></svg>
